Newaita-dark/apps/22/com.github.artemanufrij.graphui.svg

<svg height="22pt" viewBox="0 0 22 22" width="22pt" xmlns="http://www.w3.org/2000/svg" xmlns:xlink="http://www.w3.org/1999/xlink"><linearGradient id="a" gradientUnits="userSpaceOnUse" x1="10.9151146" x2="10.9151146" y1="19.27333615" y2="20.18292934324"><stop offset="0" stop-opacity=".27451"/><stop offset="1" stop-opacity="0"/></linearGradient><linearGradient id="b"><stop offset="0" stop-opacity=".313725"/><stop offset=".222222" stop-opacity=".27451"/><stop offset="1" stop-opacity="0"/></linearGradient><radialGradient id="c" cx="450.90894" cy="189.57936" gradientTransform="matrix(.00000012 -.0537161 -.0966889 -.00000007 35.83982 43.721792)" gradientUnits="userSpaceOnUse" r="21.166656" xlink:href="#b"/><radialGradient id="d" cx="450.90894" cy="189.57936" gradientTransform="matrix(-.00000012 .0537161 .0966889 .00000007 -14.00961 -5.175142)" gradientUnits="userSpaceOnUse" r="21.166656" xlink:href="#b"/><radialGradient id="e" cx="450.90894" cy="189.57936" gradientTransform="matrix(-.00000012 -.0537161 .0966889 -.00000007 -14.00961 43.721792)" gradientUnits="userSpaceOnUse" r="21.166656" xlink:href="#b"/><radialGradient id="f" cx="450.90894" cy="189.57936" gradientTransform="matrix(.00000012 .0537161 -.0966889 .00000007 35.839819 -5.175142)" gradientUnits="userSpaceOnUse" r="21.166656" xlink:href="#b"/><linearGradient id="g" gradientUnits="userSpaceOnUse" x1="7.27674425676" x2="7.27674425676" y1="19.27333515" y2="1.99106748649"><stop offset="0" stop-color="#8d6e63"/><stop offset="1" stop-color="#a1887f"/></linearGradient><linearGradient id="h"><stop offset="0" stop-color="#bdbdbd"/><stop offset="1" stop-color="#e0e0e0"/></linearGradient><linearGradient id="i" gradientUnits="userSpaceOnUse" x1="960" x2="960.00006" xlink:href="#h" y1="1695.1182" y2="175.11812"/><linearGradient id="j" gradientUnits="userSpaceOnUse" x1="10.91510331781" x2="10.915104" xlink:href="#h" y1="19.27332442218" y2="1.99107562629"/><path d="m4.09375 19.207031h13.644531v1.007813h-13.644531zm0 0" fill="url(#a)"/><path d="m17.738281 19.273438h1.816407v-.910157h-1.816407zm0 0" fill="url(#c)"/><path d="m4.09375 19.273438h-1.820312v.910156h1.820312zm0 0" fill="url(#d)"/><path d="m4.09375 19.273438h-1.820312v-.910157h1.820312zm0 0" fill="url(#e)"/><path d="m17.738281 19.273438h1.816407v.910156h-1.816407zm0 0" fill="url(#f)"/><path d="m3.183594 1.992188h15.464844c.5 0 .90625.40625.90625.910156v15.460937c0 .503907-.40625.910157-.90625.910157h-15.464844c-.503906 0-.910156-.40625-.910156-.910157v-15.460937c0-.503906.40625-.910156.910156-.910156zm0 0" fill="url(#g)"/><path d="m3.183594 1.992188c-.503906 0-.910156.40625-.910156.910156v.113281c0-.503906.40625-.910156.910156-.910156h15.464844c.503906 0 .90625.40625.90625.910156v-.113281c0-.503906-.402344-.910156-.90625-.910156zm0 0" fill="#e6e6e6" fill-opacity=".392157"/><path d="m3.183594 19.273438c-.503906 0-.910156-.40625-.910156-.910157v-.113281c0 .503906.40625.910156.910156.910156h15.464844c.503906 0 .90625-.40625.90625-.910156v.113281c0 .503907-.402344.910157-.90625.910157zm0 0" fill-opacity=".196078"/><path d="m74.083834-168.640791h359.874725c11.635253 0 21.088895 9.453643 21.088895 21.179796v359.783824c0 11.726153-9.453642 21.179796-21.088895 21.179796h-359.874725c-11.726152 0-21.179795-9.453643-21.179795-21.179796v-359.783824c0-11.726153 9.453643-21.179796 21.179795-21.179796zm0 0" fill="none" stroke="#212121" stroke-linecap="round" stroke-width="3" transform="matrix(.0429729 0 0 .0429729 0 9.239163)"/><path d="m958.534103 492.322355c-87.951516 5.496969-156.663638 27.828409-208.884851 67.68144s-86.577274 96.540531-108.908714 165.596214c-44.319318 138.454926-43.288637 329.474626-43.288637 569.623492h45.350001c0-2.404924 0-4.809848 0-7.214773l31.951137 18.208713 139.829168-242.210231-34.699621-20.270076-137.080684 238.087503c0-233.621215 1.374242-418.113262 41.227273-542.138643 20.270076-63.558713 49.816289-110.626516 93.104926-143.608335 43.632197-33.325379 102.381062-53.595455 184.148487-58.405304zm5.49697 0-2.748485 45.35c82.110986 4.809849 140.85985 25.079925 184.148487 58.405304 43.632198 32.981819 72.834849 80.049622 93.104925 143.608335 40.196592 124.712502 41.570834 310.922353 41.570834 546.604931l-140.172729-242.553791-34.699621 20.270076 140.172729 242.210231 34.699621-19.926516v8.932576h45.350001c0-240.148866.687121-431.168566-43.632198-569.623492-22.331439-69.055683-56.6875-125.743183-108.908713-165.596214s-120.933335-62.184471-208.884851-67.68144zm-24.049243 182.774244v180.02576h39.853031v-180.02576zm0 0" fill="url(#i)" stroke="#212121" stroke-linecap="round" stroke-linejoin="round" stroke-width="11.338583" transform="scale(.0113699)"/><path d="m10.914062 3.808594c-1.132812 0-2.046874.914062-2.046874 2.046875 0 1.136719.914062 2.046875 2.046874 2.046875 1.136719 0 2.046876-.910156 2.046876-2.046875 0-1.132813-.910157-2.046875-2.046876-2.046875zm-1.816406 5.460937c-.503906 0-.910156.402344-.910156.90625v1.367188c0 .503906.40625.910156.910156.910156h3.636719c.503906 0 .910156-.40625.910156-.910156v-1.367188c0-.503906-.40625-.90625-.910156-.90625zm-3.640625 5c-.503906 0-.910156.40625-.910156.910157v1.363281c0 .503906.40625.910156.910156.910156h3.640625c.503906 0 .90625-.40625.90625-.910156v-1.363281c0-.503907-.402344-.910157-.90625-.910157zm7.277344 0c-.503906 0-.910156.40625-.910156.910157v1.363281c0 .503906.40625.910156.910156.910156h3.636719c.503906 0 .910156-.40625.910156-.910156v-1.363281c0-.503907-.40625-.910157-.910156-.910157zm0 0" fill="url(#j)"/><path d="m10.914062 3.808594c-1.132812 0-2.046874.914062-2.046874 2.046875 0 .058593.003906.117187.007812.171875.085938-1.054688.964844-1.875 2.039062-1.875 1.078126 0 1.953126.820312 2.039063 1.875.007813-.054688.007813-.113282.007813-.171875 0-1.132813-.910157-2.046875-2.046876-2.046875zm-1.816406 5.460937c-.503906 0-.910156.402344-.910156.90625v.34375c0-.503906.40625-.910156.910156-.910156h3.636719c.503906 0 .910156.40625.910156.910156v-.34375c0-.503906-.40625-.90625-.910156-.90625zm-3.640625 5c-.503906 0-.910156.40625-.910156.910157v.339843c0-.503906.40625-.90625.910156-.90625h3.640625c.503906 0 .90625.402344.90625.90625v-.339843c0-.503907-.402344-.910157-.90625-.910157zm7.277344 0c-.503906 0-.910156.40625-.910156.910157v.339843c0-.503906.40625-.90625.910156-.90625h3.636719c.503906 0 .910156.402344.910156.90625v-.339843c0-.503907-.40625-.910157-.910156-.910157zm0 0" fill="#fff" fill-opacity=".392157"/><path d="m8.882812 6.085938c-.011718.074218-.015624.148437-.015624.226562 0 1.132812.914062 2.046875 2.046874 2.046875 1.136719 0 2.046876-.914063 2.046876-2.046875 0-.078125-.003907-.152344-.011719-.226562-.113281 1.023437-.976563 1.816406-2.035157 1.816406-1.054687 0-1.921874-.792969-2.03125-1.816406zm-.695312 5.457031v.453125c0 .503906.40625.910156.910156.910156h3.636719c.503906 0 .910156-.40625.910156-.910156v-.453125c0 .503906-.40625.910156-.910156.910156h-3.636719c-.503906 0-.910156-.40625-.910156-.910156zm-3.640625 5v.457031c0 .503906.40625.910156.910156.910156h3.640625c.503906 0 .90625-.40625.90625-.910156v-.457031c0 .503906-.402344.910156-.90625.910156h-3.640625c-.503906 0-.910156-.40625-.910156-.910156zm7.277344 0v.457031c0 .503906.40625.910156.910156.910156h3.636719c.503906 0 .910156-.40625.910156-.910156v-.457031c0 .503906-.40625.910156-.910156.910156h-3.636719c-.503906 0-.910156-.40625-.910156-.910156zm0 0" fill-opacity=".235294"/><path d="m959.908345 334.971595c-99.632577 0-180.025759 80.393183-180.025759 180.02576 0 99.976138 80.393182 180.02576 180.025759 180.02576 99.976138 0 180.02576-80.049622 180.02576-180.02576 0-99.632577-80.049622-180.02576-180.02576-180.02576zm-159.755683 480.297733c-44.319319 0-80.049623 35.386743-80.049623 79.706062v120.246214c0 44.319318 35.730304 80.049622 80.049623 80.049622h319.854928c44.319319 0 80.049622-35.730304 80.049622-80.049622v-120.246214c0-44.319319-35.730303-79.706062-80.049622-79.706062zm-320.198489 439.757582c-44.319319 0-80.049623 35.730303-80.049623 80.049622v119.902653c0 44.319319 35.730304 80.049622 80.049623 80.049622h320.198489c44.319318 0 79.706061-35.730303 79.706061-80.049622v-119.902653c0-44.319319-35.386743-80.049622-79.706061-80.049622zm640.053417 0c-44.319319 0-80.049622 35.730303-80.049622 80.049622v119.902653c0 44.319319 35.730303 80.049622 80.049622 80.049622h319.854928c44.319319 0 80.049622-35.730303 80.049622-80.049622v-119.902653c0-44.319319-35.730303-80.049622-80.049622-80.049622zm0 0" fill="none" stroke="#212121" stroke-linecap="round" stroke-linejoin="round" stroke-width="11.338583" transform="scale(.0113699)"/></svg>

<?xml version="1.0" encoding="UTF-8"?>
<svg xmlns="http://www.w3.org/2000/svg" xmlns:xlink="http://www.w3.org/1999/xlink" width="22pt" height="22pt" viewBox="0 0 22 22" version="1.1">
<defs>
<linearGradient id="linear0" gradientUnits="userSpaceOnUse" x1="254" y1="233.5" x2="254" y2="254.66667" gradientTransform="matrix(0.0429729,0,0,0.0429729,-0.00000171891,9.239164)">
<stop offset="0" style="stop-color:rgb(0%,0%,0%);stop-opacity:0.27451;"/>
<stop offset="1" style="stop-color:rgb(0%,0%,0%);stop-opacity:0;"/>
</linearGradient>
<radialGradient id="radial0" gradientUnits="userSpaceOnUse" cx="450.90894" cy="189.57936" fx="450.90894" fy="189.57936" r="21.166656" gradientTransform="matrix(0.000000119742,-0.0537161,-0.0966889,-0.0000000698078,35.83982,43.721792)">
<stop offset="0" style="stop-color:rgb(0%,0%,0%);stop-opacity:0.313725;"/>
<stop offset="0.222222" style="stop-color:rgb(0%,0%,0%);stop-opacity:0.27451;"/>
<stop offset="1" style="stop-color:rgb(0%,0%,0%);stop-opacity:0;"/>
</radialGradient>
<radialGradient id="radial1" gradientUnits="userSpaceOnUse" cx="450.90894" cy="189.57936" fx="450.90894" fy="189.57936" r="21.166656" gradientTransform="matrix(-0.000000119742,0.0537161,0.0966889,0.0000000698078,-14.00961,-5.175142)">
<stop offset="0" style="stop-color:rgb(0%,0%,0%);stop-opacity:0.313725;"/>
<stop offset="0.222222" style="stop-color:rgb(0%,0%,0%);stop-opacity:0.27451;"/>
<stop offset="1" style="stop-color:rgb(0%,0%,0%);stop-opacity:0;"/>
</radialGradient>
<radialGradient id="radial2" gradientUnits="userSpaceOnUse" cx="450.90894" cy="189.57936" fx="450.90894" fy="189.57936" r="21.166656" gradientTransform="matrix(-0.000000119742,-0.0537161,0.0966889,-0.0000000698078,-14.00961,43.721792)">
<stop offset="0" style="stop-color:rgb(0%,0%,0%);stop-opacity:0.313725;"/>
<stop offset="0.222222" style="stop-color:rgb(0%,0%,0%);stop-opacity:0.27451;"/>
<stop offset="1" style="stop-color:rgb(0%,0%,0%);stop-opacity:0;"/>
</radialGradient>
<radialGradient id="radial3" gradientUnits="userSpaceOnUse" cx="450.90894" cy="189.57936" fx="450.90894" fy="189.57936" r="21.166656" gradientTransform="matrix(0.000000119742,0.0537161,-0.0966889,0.0000000698078,35.839819,-5.175142)">
<stop offset="0" style="stop-color:rgb(0%,0%,0%);stop-opacity:0.313725;"/>
<stop offset="0.222222" style="stop-color:rgb(0%,0%,0%);stop-opacity:0.27451;"/>
<stop offset="1" style="stop-color:rgb(0%,0%,0%);stop-opacity:0;"/>
</radialGradient>
<linearGradient id="linear1" gradientUnits="userSpaceOnUse" x1="169.33333" y1="233.5" x2="169.33333" y2="-168.66666" gradientTransform="matrix(0.0429729,0,0,0.0429729,0,9.239163)">
<stop offset="0" style="stop-color:rgb(55.294118%,43.137255%,38.823529%);stop-opacity:1;"/>
<stop offset="1" style="stop-color:rgb(63.137255%,53.333333%,49.803922%);stop-opacity:1;"/>
</linearGradient>
<linearGradient id="linear2" gradientUnits="userSpaceOnUse" x1="960" y1="1695.1182" x2="960.00006" y2="175.11812" >
<stop offset="0" style="stop-color:rgb(74.117647%,74.117647%,74.117647%);stop-opacity:1;"/>
<stop offset="1" style="stop-color:rgb(87.843137%,87.843137%,87.843137%);stop-opacity:1;"/>
</linearGradient>
<linearGradient id="linear3" gradientUnits="userSpaceOnUse" x1="959.99994" y1="1695.1182" x2="960" y2="175.11813" gradientTransform="matrix(0.0113699,0,0,0.0113699,0,0)">
<stop offset="0" style="stop-color:rgb(74.117647%,74.117647%,74.117647%);stop-opacity:1;"/>
<stop offset="1" style="stop-color:rgb(87.843137%,87.843137%,87.843137%);stop-opacity:1;"/>
</linearGradient>
</defs>
<g id="surface1">
<path style=" stroke:none;fill-rule:nonzero;fill:url(#linear0);" d="M 4.09375 19.207031 L 17.738281 19.207031 L 17.738281 20.214844 L 4.09375 20.214844 Z M 4.09375 19.207031 "/>
<path style=" stroke:none;fill-rule:nonzero;fill:url(#radial0);" d="M 17.738281 19.273438 L 19.554688 19.273438 L 19.554688 18.363281 L 17.738281 18.363281 Z M 17.738281 19.273438 "/>
<path style=" stroke:none;fill-rule:nonzero;fill:url(#radial1);" d="M 4.09375 19.273438 L 2.273438 19.273438 L 2.273438 20.183594 L 4.09375 20.183594 Z M 4.09375 19.273438 "/>
<path style=" stroke:none;fill-rule:nonzero;fill:url(#radial2);" d="M 4.09375 19.273438 L 2.273438 19.273438 L 2.273438 18.363281 L 4.09375 18.363281 Z M 4.09375 19.273438 "/>
<path style=" stroke:none;fill-rule:nonzero;fill:url(#radial3);" d="M 17.738281 19.273438 L 19.554688 19.273438 L 19.554688 20.183594 L 17.738281 20.183594 Z M 17.738281 19.273438 "/>
<path style=" stroke:none;fill-rule:nonzero;fill:url(#linear1);" d="M 3.183594 1.992188 L 18.648438 1.992188 C 19.148438 1.992188 19.554688 2.398438 19.554688 2.902344 L 19.554688 18.363281 C 19.554688 18.867188 19.148438 19.273438 18.648438 19.273438 L 3.183594 19.273438 C 2.679688 19.273438 2.273438 18.867188 2.273438 18.363281 L 2.273438 2.902344 C 2.273438 2.398438 2.679688 1.992188 3.183594 1.992188 Z M 3.183594 1.992188 "/>
<path style=" stroke:none;fill-rule:nonzero;fill:rgb(90.196078%,90.196078%,90.196078%);fill-opacity:0.392157;" d="M 3.183594 1.992188 C 2.679688 1.992188 2.273438 2.398438 2.273438 2.902344 L 2.273438 3.015625 C 2.273438 2.511719 2.679688 2.105469 3.183594 2.105469 L 18.648438 2.105469 C 19.152344 2.105469 19.554688 2.511719 19.554688 3.015625 L 19.554688 2.902344 C 19.554688 2.398438 19.152344 1.992188 18.648438 1.992188 Z M 3.183594 1.992188 "/>
<path style=" stroke:none;fill-rule:nonzero;fill:rgb(0%,0%,0%);fill-opacity:0.196078;" d="M 3.183594 19.273438 C 2.679688 19.273438 2.273438 18.867188 2.273438 18.363281 L 2.273438 18.25 C 2.273438 18.753906 2.679688 19.160156 3.183594 19.160156 L 18.648438 19.160156 C 19.152344 19.160156 19.554688 18.753906 19.554688 18.25 L 19.554688 18.363281 C 19.554688 18.867188 19.152344 19.273438 18.648438 19.273438 Z M 3.183594 19.273438 "/>
<path style="fill:none;stroke-width:3;stroke-linecap:round;stroke-linejoin:miter;stroke:rgb(12.941176%,12.941176%,12.941176%);stroke-opacity:1;stroke-miterlimit:4;" d="M 74.083834 -168.640791 L 433.958559 -168.640791 C 445.593812 -168.640791 455.047454 -159.187148 455.047454 -147.460995 L 455.047454 212.322829 C 455.047454 224.048982 445.593812 233.502625 433.958559 233.502625 L 74.083834 233.502625 C 62.357682 233.502625 52.904039 224.048982 52.904039 212.322829 L 52.904039 -147.460995 C 52.904039 -159.187148 62.357682 -168.640791 74.083834 -168.640791 Z M 74.083834 -168.640791 " transform="matrix(0.0429729,0,0,0.0429729,0,9.239163)"/>
<path style="fill-rule:nonzero;fill:url(#linear2);stroke-width:11.338583;stroke-linecap:round;stroke-linejoin:round;stroke:rgb(12.941176%,12.941176%,12.941176%);stroke-opacity:1;stroke-miterlimit:4;" d="M 958.534103 492.322355 C 870.582587 497.819324 801.870465 520.150764 749.649252 560.003795 C 697.428039 599.856826 663.071978 656.544326 640.740538 725.600009 C 596.42122 864.054935 597.451901 1055.074635 597.451901 1295.223501 L 642.801902 1295.223501 C 642.801902 1292.818577 642.801902 1290.413653 642.801902 1288.008728 L 674.753039 1306.217441 L 814.582207 1064.00721 L 779.882586 1043.737134 L 642.801902 1281.824637 C 642.801902 1048.203422 644.176144 863.711375 684.029175 739.685994 C 704.299251 676.127281 733.845464 629.059478 777.134101 596.077659 C 820.766298 562.75228 879.515163 542.482204 961.282588 537.672355 Z M 964.031073 492.322355 L 961.282588 537.672355 C 1043.393574 542.482204 1102.142438 562.75228 1145.431075 596.077659 C 1189.063273 629.059478 1218.265924 676.127281 1238.536 739.685994 C 1278.732592 864.398496 1280.106834 1050.608347 1280.106834 1286.290925 L 1139.934105 1043.737134 L 1105.234484 1064.00721 L 1245.407213 1306.217441 L 1280.106834 1286.290925 C 1280.106834 1289.382971 1280.106834 1292.131456 1280.106834 1295.223501 L 1325.456835 1295.223501 C 1325.456835 1055.074635 1326.143956 864.054935 1281.824637 725.600009 C 1259.493198 656.544326 1225.137137 599.856826 1172.915924 560.003795 C 1120.694711 520.150764 1051.982589 497.819324 964.031073 492.322355 Z M 939.98183 675.096599 L 939.98183 855.122359 L 979.834861 855.122359 L 979.834861 675.096599 Z M 939.98183 675.096599 " transform="matrix(0.0113699,0,0,0.0113699,0,0)"/>
<path style=" stroke:none;fill-rule:nonzero;fill:url(#linear3);" d="M 10.914062 3.808594 C 9.78125 3.808594 8.867188 4.722656 8.867188 5.855469 C 8.867188 6.992188 9.78125 7.902344 10.914062 7.902344 C 12.050781 7.902344 12.960938 6.992188 12.960938 5.855469 C 12.960938 4.722656 12.050781 3.808594 10.914062 3.808594 Z M 9.097656 9.269531 C 8.59375 9.269531 8.1875 9.671875 8.1875 10.175781 L 8.1875 11.542969 C 8.1875 12.046875 8.59375 12.453125 9.097656 12.453125 L 12.734375 12.453125 C 13.238281 12.453125 13.644531 12.046875 13.644531 11.542969 L 13.644531 10.175781 C 13.644531 9.671875 13.238281 9.269531 12.734375 9.269531 Z M 5.457031 14.269531 C 4.953125 14.269531 4.546875 14.675781 4.546875 15.179688 L 4.546875 16.542969 C 4.546875 17.046875 4.953125 17.453125 5.457031 17.453125 L 9.097656 17.453125 C 9.601562 17.453125 10.003906 17.046875 10.003906 16.542969 L 10.003906 15.179688 C 10.003906 14.675781 9.601562 14.269531 9.097656 14.269531 Z M 12.734375 14.269531 C 12.230469 14.269531 11.824219 14.675781 11.824219 15.179688 L 11.824219 16.542969 C 11.824219 17.046875 12.230469 17.453125 12.734375 17.453125 L 16.371094 17.453125 C 16.875 17.453125 17.28125 17.046875 17.28125 16.542969 L 17.28125 15.179688 C 17.28125 14.675781 16.875 14.269531 16.371094 14.269531 Z M 12.734375 14.269531 "/>
<path style=" stroke:none;fill-rule:nonzero;fill:rgb(100%,100%,100%);fill-opacity:0.392157;" d="M 10.914062 3.808594 C 9.78125 3.808594 8.867188 4.722656 8.867188 5.855469 C 8.867188 5.914062 8.871094 5.972656 8.875 6.027344 C 8.960938 4.972656 9.839844 4.152344 10.914062 4.152344 C 11.992188 4.152344 12.867188 4.972656 12.953125 6.027344 C 12.960938 5.972656 12.960938 5.914062 12.960938 5.855469 C 12.960938 4.722656 12.050781 3.808594 10.914062 3.808594 Z M 9.097656 9.269531 C 8.59375 9.269531 8.1875 9.671875 8.1875 10.175781 L 8.1875 10.519531 C 8.1875 10.015625 8.59375 9.609375 9.097656 9.609375 L 12.734375 9.609375 C 13.238281 9.609375 13.644531 10.015625 13.644531 10.519531 L 13.644531 10.175781 C 13.644531 9.671875 13.238281 9.269531 12.734375 9.269531 Z M 5.457031 14.269531 C 4.953125 14.269531 4.546875 14.675781 4.546875 15.179688 L 4.546875 15.519531 C 4.546875 15.015625 4.953125 14.613281 5.457031 14.613281 L 9.097656 14.613281 C 9.601562 14.613281 10.003906 15.015625 10.003906 15.519531 L 10.003906 15.179688 C 10.003906 14.675781 9.601562 14.269531 9.097656 14.269531 Z M 12.734375 14.269531 C 12.230469 14.269531 11.824219 14.675781 11.824219 15.179688 L 11.824219 15.519531 C 11.824219 15.015625 12.230469 14.613281 12.734375 14.613281 L 16.371094 14.613281 C 16.875 14.613281 17.28125 15.015625 17.28125 15.519531 L 17.28125 15.179688 C 17.28125 14.675781 16.875 14.269531 16.371094 14.269531 Z M 12.734375 14.269531 "/>
<path style=" stroke:none;fill-rule:nonzero;fill:rgb(0%,0%,0%);fill-opacity:0.235294;" d="M 8.882812 6.085938 C 8.871094 6.160156 8.867188 6.234375 8.867188 6.3125 C 8.867188 7.445312 9.78125 8.359375 10.914062 8.359375 C 12.050781 8.359375 12.960938 7.445312 12.960938 6.3125 C 12.960938 6.234375 12.957031 6.160156 12.949219 6.085938 C 12.835938 7.109375 11.972656 7.902344 10.914062 7.902344 C 9.859375 7.902344 8.992188 7.109375 8.882812 6.085938 Z M 8.1875 11.542969 L 8.1875 11.996094 C 8.1875 12.5 8.59375 12.90625 9.097656 12.90625 L 12.734375 12.90625 C 13.238281 12.90625 13.644531 12.5 13.644531 11.996094 L 13.644531 11.542969 C 13.644531 12.046875 13.238281 12.453125 12.734375 12.453125 L 9.097656 12.453125 C 8.59375 12.453125 8.1875 12.046875 8.1875 11.542969 Z M 4.546875 16.542969 L 4.546875 17 C 4.546875 17.503906 4.953125 17.910156 5.457031 17.910156 L 9.097656 17.910156 C 9.601562 17.910156 10.003906 17.503906 10.003906 17 L 10.003906 16.542969 C 10.003906 17.046875 9.601562 17.453125 9.097656 17.453125 L 5.457031 17.453125 C 4.953125 17.453125 4.546875 17.046875 4.546875 16.542969 Z M 11.824219 16.542969 L 11.824219 17 C 11.824219 17.503906 12.230469 17.910156 12.734375 17.910156 L 16.371094 17.910156 C 16.875 17.910156 17.28125 17.503906 17.28125 17 L 17.28125 16.542969 C 17.28125 17.046875 16.875 17.453125 16.371094 17.453125 L 12.734375 17.453125 C 12.230469 17.453125 11.824219 17.046875 11.824219 16.542969 Z M 11.824219 16.542969 "/>
<path style="fill:none;stroke-width:11.338583;stroke-linecap:round;stroke-linejoin:round;stroke:rgb(12.941176%,12.941176%,12.941176%);stroke-opacity:1;stroke-miterlimit:4;" d="M 959.908345 334.971595 C 860.275768 334.971595 779.882586 415.364778 779.882586 514.997355 C 779.882586 614.973493 860.275768 695.023115 959.908345 695.023115 C 1059.884483 695.023115 1139.934105 614.973493 1139.934105 514.997355 C 1139.934105 415.364778 1059.884483 334.971595 959.908345 334.971595 Z M 800.152662 815.269328 C 755.833343 815.269328 720.103039 850.656071 720.103039 894.97539 L 720.103039 1015.221604 C 720.103039 1059.540922 755.833343 1095.271226 800.152662 1095.271226 L 1120.00759 1095.271226 C 1164.326909 1095.271226 1200.057212 1059.540922 1200.057212 1015.221604 L 1200.057212 894.97539 C 1200.057212 850.656071 1164.326909 815.269328 1120.00759 815.269328 Z M 479.954173 1255.02691 C 435.634854 1255.02691 399.90455 1290.757213 399.90455 1335.076532 L 399.90455 1454.979185 C 399.90455 1499.298504 435.634854 1535.028807 479.954173 1535.028807 L 800.152662 1535.028807 C 844.47198 1535.028807 879.858723 1499.298504 879.858723 1454.979185 L 879.858723 1335.076532 C 879.858723 1290.757213 844.47198 1255.02691 800.152662 1255.02691 Z M 1120.00759 1255.02691 C 1075.688271 1255.02691 1039.957968 1290.757213 1039.957968 1335.076532 L 1039.957968 1454.979185 C 1039.957968 1499.298504 1075.688271 1535.028807 1120.00759 1535.028807 L 1439.862518 1535.028807 C 1484.181837 1535.028807 1519.91214 1499.298504 1519.91214 1454.979185 L 1519.91214 1335.076532 C 1519.91214 1290.757213 1484.181837 1255.02691 1439.862518 1255.02691 Z M 1120.00759 1255.02691 " transform="matrix(0.0113699,0,0,0.0113699,0,0)"/>
</g>
</svg>
